material/.icons/material/chevron-left-box.svg

<svg xmlns="http://www.w3.org/2000/svg" viewBox="0 0 24 24"><path d="M19 3H5a2 2 0 00-2 2v14a2 2 0 002 2h14c1.11 0 2-.89 2-2V5a2 2 0 00-2-2m-3.29 13.59L14.29 18l-6-6 6-6 1.42 1.41L11.12 12l4.59 4.59z"/></svg>

<?xml version="1.0" encoding="UTF-8"?><!DOCTYPE svg PUBLIC "-//W3C//DTD SVG 1.1//EN" "http://www.w3.org/Graphics/SVG/1.1/DTD/svg11.dtd"><svg xmlns="http://www.w3.org/2000/svg" xmlns:xlink="http://www.w3.org/1999/xlink" version="1.1" id="mdi-chevron-left-box" width="24" height="24" viewBox="0 0 24 24"><path d="M19,3H5A2,2 0 0,0 3,5V19C3,20.11 3.9,21 5,21H19C20.11,21 21,20.11 21,19V5A2,2 0 0,0 19,3M15.71,16.59L14.29,18L8.29,12L14.29,6L15.71,7.41L11.12,12L15.71,16.59Z" /></svg>
